X: 1
T: Bourr\'ee du Chants de vielles
C: Daniel Thonon 2013
R: bourree
Z: 2015 John Chambers <jc:trillian.mit.edu>
M: 4/4
L: 1/8
K: Am
|: c2 B>c A3 G | A>B ce dc BA | c2 B>c A3 G A>B ce d4 :|
|: d>g fe d>c BA | G>A Bc dc A2 | d>g fe d>c BA | GABA G2G2 :|
